app/client/src/widgets/wds/WDSParagraphWidget/thumbnail.svg

<svg xmlns="http://www.w3.org/2000/svg" width="72" height="76" fill="none"><rect width="56" height="44" x="8" y="16" fill="#fff" rx="3"/><path stroke="#CC3D00" stroke-linecap="round" stroke-linejoin="round" d="M23.5 25.5h1m0 0H29a2.5 2.5 0 0 1 2.5 2.5v0a2.5 2.5 0 0 1-2.5 2.5h-4.5m0-5v5m0 3v-3m-1 3h2M35.5 25.5h12M35.5 29.5h12M35.5 33.5h12M23.5 37.5h24M23.5 41.5h24M23.5 45.5h24M23.5 49.5h14"/></svg>

<svg width="72" height="76" viewBox="0 0 72 76" fill="none" xmlns="http://www.w3.org/2000/svg">
<rect x="8" y="16" width="56" height="44" rx="3" fill="white"/>
<path d="M23.5 25.5H24.5M24.5 25.5H29C30.3807 25.5 31.5 26.6193 31.5 28V28C31.5 29.3807 30.3807 30.5 29 30.5H24.5M24.5 25.5V30.5M24.5 33.5V30.5M23.5 33.5H25.5" stroke="#CC3D00" stroke-linecap="round" stroke-linejoin="round"/>
<path d="M35.5 25.5H47.5" stroke="#CC3D00" stroke-linecap="round" stroke-linejoin="round"/>
<path d="M35.5 29.5H47.5" stroke="#CC3D00" stroke-linecap="round" stroke-linejoin="round"/>
<path d="M35.5 33.5H47.5" stroke="#CC3D00" stroke-linecap="round" stroke-linejoin="round"/>
<path d="M23.5 37.5H47.5" stroke="#CC3D00" stroke-linecap="round" stroke-linejoin="round"/>
<path d="M23.5 41.5H47.5" stroke="#CC3D00" stroke-linecap="round" stroke-linejoin="round"/>
<path d="M23.5 45.5H47.5" stroke="#CC3D00" stroke-linecap="round" stroke-linejoin="round"/>
<path d="M23.5 49.5H37.5" stroke="#CC3D00" stroke-linecap="round" stroke-linejoin="round"/>
</svg>
